Papirus/64x64/apps/aseprite.svg

<?xml version="1.0" encoding="UTF-8" standalone="no"?>
<svg
   id="_图层_1"
   version="1.1"
   viewBox="0 0 64 64" width="64" height="64"
   sodipodi:docname="aseprite.svg"
   xml:space="preserve"
   inkscape:version="1.4 (e7c3feb100, 2024-10-09)"
   xmlns:inkscape="http://www.inkscape.org/namespaces/inkscape"
   xmlns:sodipodi="http://sodipodi.sourceforge.net/DTD/sodipodi-0.dtd"
   xmlns="http://www.w3.org/2000/svg"
   xmlns:svg="http://www.w3.org/2000/svg"><sodipodi:namedview
     id="namedview26"
     pagecolor="#505050"
     bordercolor="#eeeeee"
     borderopacity="1"
     inkscape:showpageshadow="0"
     inkscape:pageopacity="0"
     inkscape:pagecheckerboard="0"
     inkscape:deskcolor="#505050"
     inkscape:zoom="10.6875"
     inkscape:cx="32"
     inkscape:cy="32"
     inkscape:window-width="1920"
     inkscape:window-height="939"
     inkscape:window-x="0"
     inkscape:window-y="34"
     inkscape:window-maximized="1"
     inkscape:current-layer="_图层_1" /><!-- Generator: Adobe Illustrator 29.0.1, SVG Export Plug-In . SVG Version: 2.1.0 Build 192)  --><defs
     id="defs6"><style
       id="style1">
      .st0 {
        fill-opacity: .5;
      }

      .st0, .st1, .st2, .st3, .st4, .st5, .st6, .st7 {
        fill: #fff;
      }

      .st8 {
        fill: #133c9a;
      }

      .st2, .st9 {
        display: none;
      }

      .st3 {
        fill-opacity: .2;
      }

      .st4 {
        fill-opacity: .9;
      }

      .st10 {
        fill: #3370ff;
      }

      .st11 {
        fill: url(#_未命名的渐变_3);
      }

      .st12 {
        fill: url(#_未命名的渐变);
      }

      .st5 {
        fill-opacity: .3;
      }

      .st6 {
        fill-opacity: 0;
      }

      .st7 {
        fill-opacity: .7;
      }

      .st13 {
        fill: #00d6b9;
      }

      .st14 {
        fill: url(#_未命名的渐变_2);
      }
    </style><radialGradient
       id="_未命名的渐变"
       data-name="未命名的渐变"
       cx="123.9"
       cy="-40.2"
       fx="123.9"
       fy="-40.2"
       r="59.4"
       gradientTransform="translate(-26.8 25.5) scale(.6 -.7)"
       gradientUnits="userSpaceOnUse"><stop
         offset="0"
         stop-color="#db202e"
         id="stop1" /><stop
         offset="1"
         stop-color="#e01b24"
         id="stop2" /></radialGradient><radialGradient
       id="_未命名的渐变_2"
       data-name="未命名的渐变 2"
       cx="67.6"
       cy="26.8"
       fx="67.6"
       fy="26.8"
       r="105.2"
       gradientTransform="translate(-26.6 25.3) scale(.6 -.7)"
       gradientUnits="userSpaceOnUse"><stop
         offset="0"
         stop-color="#ffb648"
         id="stop3" /><stop
         offset="1"
         stop-color="#ff7800"
         stop-opacity="0"
         id="stop4" /></radialGradient><radialGradient
       id="_未命名的渐变_3"
       data-name="未命名的渐变 3"
       cx="61.7"
       cy="18.6"
       fx="61.7"
       fy="18.6"
       r="68"
       gradientTransform="translate(-26.8 25.8) scale(.6 -.7)"
       gradientUnits="userSpaceOnUse"><stop
         offset="0"
         stop-color="#c64600"
         id="stop5" /><stop
         offset="1"
         stop-color="#a51d2d"
         id="stop6" /></radialGradient></defs><path
     class="st1"
     d="M47.5,64.1H13.8c-7.6,0-13.8-6.3-13.8-13.8V13.7C0,6.2,6.2,0,13.7,0h36.6c7.5,0,13.7,6.2,13.7,13.7v36.6c0,7.5-6.2,13.7-13.7,13.7h-2.9.1Z"
     id="path6"
     style="fill:#ffffff;fill-opacity:1" /><g
     id="g26"
     transform="matrix(0.87802841,0,0,0.8768852,3.3884712,3.8287166)"><path
       style="opacity:0.2"
       d="m 4,56 v 1 h 4 v -1 z m 52,0 v 1 0 h 4 V 56 Z M 8,60 v 1 h 4 40 4 V 60 H 52 12 Z"
       id="path1" /><rect
       style="fill:#ffffff"
       width="48"
       height="48"
       x="8"
       y="8"
       id="rect1" /><path
       style="fill:#5c3e52"
       d="M 12,4 V 8 H 52 V 4 Z m 40,4 v 4 h 4 V 8 Z m 4,4 v 40 h 4 V 12 Z m 0,40 h -4 v 4 h 4 z m -4,4 H 12 v 4 H 52 Z M 12,56 V 52 H 8 v 4 z M 8,52 V 12 H 4 V 52 Z M 8,12 h 4 V 8 H 8 Z m 12,8 v 16 h 4 V 20 Z m 20,0 v 16 h 4 V 20 Z"
       id="path2" /><path
       style="fill:#6d8292"
       d="m 8,44 v 8 h 4 v 4 h 40 v -4 h 4 v -8 h -4 v 4 H 12 v -4 z"
       id="path3" /><rect
       style="opacity:0.2"
       width="4"
       height="1"
       x="4"
       y="12"
       id="rect3" /><rect
       style="opacity:0.2"
       width="4"
       height="1"
       x="8"
       y="8"
       id="rect4" /><rect
       style="opacity:0.2"
       width="4"
       height="1"
       x="52"
       y="8"
       id="rect5" /><rect
       style="opacity:0.2"
       width="4"
       height="1"
       x="56"
       y="12"
       id="rect6" /><rect
       style="opacity:0.2"
       width="4"
       height="1"
       x="8"
       y="43.990002"
       id="rect7" /><rect
       style="opacity:0.2"
       width="4"
       height="1"
       x="8"
       y="52"
       id="rect8" /><rect
       style="opacity:0.2"
       width="4"
       height="1"
       x="52"
       y="43.990002"
       id="rect9" /><rect
       style="opacity:0.2"
       width="4"
       height="1"
       x="52"
       y="52"
       id="rect10" /><rect
       style="opacity:0.2"
       width="40"
       height="1"
       x="12"
       y="48"
       id="rect11" /><rect
       style="opacity:0.2"
       width="40"
       height="1"
       x="12"
       y="56"
       id="rect12" /><path
       style="opacity:0.1"
       d="m 20,36 v 1 h 4 v -1 z m 20,0 v 1 h 4 v -1 z"
       id="path12" /><path
       style="fill:#825873"
       d="m 8,4 v 4 h 4 V 4 Z M 8,8 H 4 v 4 H 8 Z M 52,4 v 4 h 4 V 4 Z m 4,4 v 4 h 4 V 8 Z M 4,52 v 4 h 4 v -4 z m 4,4 v 4 h 4 v -4 z m 48,-4 v 4 h 4 v -4 z m 0,4 h -4 v 4 h 4 z"
       id="path13" /><path
       style="opacity:0.1;fill:#ffffff"
       d="m 8,4 v 1 h 4 40 4 V 4 H 52 12 Z M 4,8 V 9 H 8 V 8 Z m 52,0 v 1 0 h 4 V 8 Z"
       id="path14" /><path
       style="opacity:0.1;fill:#ffffff"
       d="m 4,52 v 1 h 4 v -1 z m 52,0 v 1 h 4 V 52 Z M 8,56 v 1 h 4 v -1 z m 44,0 v 1 h 4 v -1 z"
       id="path15" /></g></svg>

<svg xmlns="http://www.w3.org/2000/svg" width="64" height="64" version="1">
 <path style="opacity:0.2" d="m 4,56 v 1 h 4 v -1 z m 52,0 v 1 H 56 60 V 56 H 56 Z M 8,60 v 1 h 4 40 4 V 60 H 52 12 Z"/>
 <rect style="fill:#ffffff" width="48" height="48" x="8" y="8"/>
 <path style="fill:#5c3e52" d="m12 4v4h40v-4zm40 4v4h4v-4zm4 4v40h4v-40zm0 40h-4v4h4zm-4 4h-40v4h40zm-40 0v-4h-4v4zm-4-4v-40h-4v40zm0-40h4v-4h-4zm12 8v16h4v-16zm20 0v16h4v-16z"/>
 <path style="fill:#6d8292" d="m8 44v8h4v4h40v-4h4v-8h-4v4h-40v-4z"/>
 <rect style="opacity:.2" width="4" height="1" x="4" y="12"/>
 <rect style="opacity:.2" width="4" height="1" x="8" y="8"/>
 <rect style="opacity:.2" width="4" height="1" x="52" y="8"/>
 <rect style="opacity:.2" width="4" height="1" x="56" y="12"/>
 <rect style="opacity:.2" width="4" height="1" x="8" y="43.99"/>
 <rect style="opacity:.2" width="4" height="1" x="8" y="52"/>
 <rect style="opacity:.2" width="4" height="1" x="52" y="43.99"/>
 <rect style="opacity:.2" width="4" height="1" x="52" y="52"/>
 <rect style="opacity:.2" width="40" height="1" x="12" y="48"/>
 <rect style="opacity:.2" width="40" height="1" x="12" y="56"/>
 <path style="opacity:0.1" d="m20 36v1h4v-1zm20 0v1h4v-1z"/>
 <path style="fill:#825873" d="m8 4v4h4v-4zm0 4h-4v4h4zm44-4v4h4v-4zm4 4v4h4v-4zm-52 44v4h4v-4zm4 4v4h4v-4zm48-4v4h4v-4zm0 4h-4v4h4z"/>
 <path style="opacity:0.1;fill:#ffffff" d="m 8,4 v 1 h 4 40 4 V 4 H 52 12 Z M 4,8 V 9 H 8 V 8 Z M 56,8 V 9 H 56 60 V 8 h -4 z"/>
 <path style="opacity:0.1;fill:#ffffff" d="M 4 52 L 4 53 L 8 53 L 8 52 L 4 52 z M 56 52 L 56 53 L 60 53 L 60 52 L 56 52 z M 8 56 L 8 57 L 12 57 L 12 56 L 8 56 z M 52 56 L 52 57 L 56 57 L 56 56 L 52 56 z"/>
</svg>
